svgs/thin/pen-swirl.svg

<svg xmlns="http://www.w3.org/2000/svg" viewBox="0 0 512 512"><!--! Font Awesome Pro 6.0.0-alpha3 by @fontawesome - https://fontawesome.com License - https://fontawesome.com/license (Commercial License) --><path d="M256 480c-123.5 0-224-100.5-224-224s100.5-224 224-224c27.03 0 52.84 5.059 76.86 13.88l12.46-12.46C317.7 22.28 287.6 16 256 16C123.7 16 16 123.7 16 256s107.7 240 240 240c4.406 0 8-3.578 8-8S260.4 480 256 480zM466.1 179.1C474.9 203.2 480 228.1 480 256c0 68.69-55.88 124.6-124.6 124.6c-35.97 0-68.18-15.56-90.95-40.03l-17.73 3.547c25.8 31.75 64.66 52.49 108.7 52.49C432.9 396.6 496 333.5 496 256c0-31.58-6.28-61.67-17.41-89.31L466.1 179.1zM511.1 69.79c0-11.26-4.295-22.52-12.89-31.11L473.3 12.89c-8.592-8.592-19.85-12.89-31.11-12.89c-11.26 0-22.52 4.296-31.11 12.89L215.7 208.3c-3.072 3.072-5.164 6.984-6.016 11.24L192.2 306.8C192.1 307.6 191.1 308.3 191.1 309c0 6.013 4.953 10.96 10.97 10.96c.7187 0 1.453-.0713 2.198-.2197l87.29-17.46c4.258-.8516 8.168-2.945 11.24-6.016l195.4-195.4C507.7 92.31 511.1 81.05 511.1 69.79zM292.4 284.1c-.8398 .8398-1.898 1.406-3.062 1.639L209.4 302.7l16.01-80.03c.2324-1.168 .8008-2.229 1.641-3.068l150.6-150.7l65.38 65.38L292.4 284.1zM487.8 89.59l-33.45 33.45l-65.38-65.38l33.45-33.45C427.7 18.91 434.7 16 442.2 16c7.48 0 14.51 2.912 19.8 8.201l25.79 25.79C493.1 55.28 496 62.31 496 69.79C496 77.27 493.1 84.3 487.8 89.59z"/></svg>

<svg xmlns="http://www.w3.org/2000/svg" viewBox="0 0 512 512"><!-- Font Awesome Pro 6.0.0-alpha2 by @fontawesome - https://fontawesome.com License - https://fontawesome.com/license (Commercial License) --><path d="M256 480C132.5 480 32 379.516 32 256S132.5 32 256 32C283.031 32 308.844 37.059 332.859 45.875L345.318 33.416C317.678 22.283 287.58 16 256 16C123.656 16 16 123.656 16 256S123.656 496 256 496C260.406 496 264 492.422 264 488S260.406 480 256 480ZM466.125 179.139C474.941 203.154 480 228.967 480 256C480 324.688 424.125 380.578 355.438 380.578C319.463 380.578 287.26 365.016 264.492 340.545L246.766 344.092C272.562 375.844 311.426 396.578 355.438 396.578C432.938 396.578 496 333.516 496 256C496 224.42 489.717 194.322 478.584 166.682L466.125 179.139ZM512 69.788C512 58.528 507.704 47.268 499.113 38.678L473.324 12.887C464.732 4.295 453.473 0 442.213 0C430.951 0 419.691 4.295 411.1 12.887L215.691 208.307C212.619 211.379 210.527 215.291 209.676 219.549L192.219 306.836C192.07 307.58 191.999 308.315 191.999 309.035C191.999 315.048 196.952 320 202.965 320C203.684 320 204.418 319.928 205.162 319.779L292.453 302.32C296.711 301.469 300.621 299.375 303.691 296.305L499.109 100.906C507.703 92.314 512 81.051 512 69.788ZM292.377 284.992C291.537 285.832 290.479 286.398 289.314 286.631L209.359 302.713L225.365 222.687C225.598 221.52 226.166 220.459 227.006 219.619L377.652 68.965L443.035 134.348L292.377 284.992ZM487.797 89.592L454.35 123.037L388.965 57.652L422.412 24.201C427.701 18.912 434.732 16 442.211 16C449.691 16 456.723 18.912 462.01 24.201L487.799 49.99C493.088 55.279 496 62.311 496 69.791C496 77.27 493.086 84.303 487.797 89.592Z "></path></svg>
